svgs/private_location.svg

<svg width="192" height="192" viewBox="0 0 192 192" fill="none" xmlns="http://www.w3.org/2000/svg">
<path d="M34.8124 73.5C43.408 121.088 56.835 147.736 96.1831 170C134.829 145.367 149.977 116.848 157.346 73.5M34.8124 73.5C33.068 63.8428 31.5227 53.3231 30 41.8028L96.1831 22L161.324 41.8028C160.273 53.2055 159.007 63.7295 157.346 73.5M34.8124 73.5H63.5M130 73.5H157.346" stroke="black" stroke-width="12" stroke-linejoin="round"/>
<path d="M96 22V44M96.5 167V143.5" stroke="black" stroke-width="12" stroke-linejoin="round"/>
<path d="M96.6964 46.493C87.9912 46.493 79.6424 49.951 73.4869 56.1066C67.3314 62.2621 63.8732 70.6109 63.8732 79.3161C63.8732 80.0691 63.8732 80.8222 63.8732 81.5309V81.7081C65.2021 99.6917 87.3161 140.752 96.6964 144.4C105.472 140.752 129.52 98.541 129.52 79.3161C129.52 70.6109 126.061 62.2621 119.906 56.1066C113.75 49.951 105.402 46.493 96.6964 46.493ZM96.6964 63.5468C99.8206 63.5468 102.874 64.4735 105.472 66.2097C108.069 67.9459 110.093 70.4135 111.287 73.3002C112.483 76.1871 112.793 79.3633 112.183 82.4271C111.572 85.4911 110.066 88.3047 107.855 90.5123C105.644 92.7199 102.829 94.2219 99.7636 94.8285C96.6989 95.4361 93.5231 95.1203 90.6379 93.9217C87.7528 92.7227 85.288 90.6952 83.5556 88.0954C81.823 85.4956 80.9006 82.4403 80.905 79.3161C80.9109 75.1318 82.5772 71.1209 85.538 68.1642C88.4989 65.2076 92.5121 63.5468 96.6964 63.5468Z" stroke="black" stroke-width="8" stroke-linecap="round" stroke-linejoin="round"/>
</svg>

<svg width="192" height="192" viewBox="0 0 192 192" fill="none" xmlns="http://www.w3.org/2000/svg"><path d="M34.812 73.5c8.596 47.588 22.023 74.236 61.371 96.5 38.646-24.633 53.794-53.152 61.163-96.5m-122.534 0c-1.744-9.657-3.29-20.177-4.812-31.697L96.183 22l65.141 19.803c-1.051 11.403-2.317 21.927-3.978 31.697m-122.534 0H63.5m66.5 0h27.346M96 22v22m.5 123v-23.5" stroke="#000" stroke-width="12" stroke-linejoin="round"/><path d="M96.696 46.493a32.823 32.823 0 0 0-32.823 32.823v2.392c1.33 17.984 23.443 59.044 32.823 62.692 8.776-3.648 32.824-45.859 32.824-65.084a32.826 32.826 0 0 0-32.824-32.823Zm0 17.054a15.793 15.793 0 0 1 11.159 26.965 15.788 15.788 0 0 1-17.217 3.41 15.794 15.794 0 0 1-5.1-25.758 15.792 15.792 0 0 1 11.158-4.617Z" stroke="#000" stroke-width="8" stroke-linecap="round" stroke-linejoin="round"/></svg>
